X:728
T:Mrs. Oswald of Auchincruive
R:Reel
B:The Athole Collection
M:C|
L:1/8
K:G
D|G3d BGdG|FDAD F(AA)c|B2 Gd BGdG|FDAc BGG:|
d|gdbg fdaf|gdbg faaf|gdbg fdaf|gdec BGGd|gdbg fdaf|
gdbg faaf|gbaf gedc|BdAc BGG||

